X: 35
T: Mazurka 52 in C Major
C: Frederic Chopin
%%abc-version 2.0
%%abcx-abcm2ps-target-version 5.9.1 (29 Sep 2008)
%%abc-creator hum2abc beta
%%abcx-conversion-date 2021/01/17 12:55:01
%%abc-edited-by Craig Stuart Sapp
%%abcx-initial-encoding-date 2005/06/14/
%%gracespace 0 6 6
%%humdrum-veritas 862881090
%%humdrum-veritas-data 830817630
%%linebreak <none>
%%barnumbers 0
L: 1/4
M: 3/4
N: Derived from mazurka-52.krn
Q: 1/4=120
%%staves {1 2}
V: 1 clef=treble
V: 2 clef=bass
K: C
[V:1] G/>B/cA & EE^D | 
[V:2] .[C,G,C].[C,G,C].[C,^F,C] | 
[V:1] Gc2 & EE2 | 
[V:2] [C,G,C].[C,,G,,C,].[C,,G,,C,] | 
[V:1] G/>B/ c/d/e/c/ & EEE | 
[V:2] .[C,,G,,C,].[C,G,C].[C,G,C] | 
[V:1] e/^f/g2 & E/A/G2 | 
[V:2] [C,G,C][C,G,E][C,G,E] | 
[V:1] g/>^f/ e/f/d/f/ & GG^F | 
[V:2] [C,G,E][C,G,E][C,A,D] | 
[V:1] g>^ga/=g/ & G/A/G-[G^c] | 
[V:2] [C,G,E][_B,,D,][A,,E,] | 
[V:1] g/^f/df & zcc- | 
[V:2] .[D,,D,].[D,A,D].[D,A,D] | 
[V:1] g2g/f/ & c/[c/d/][Bd]_B | 
[V:2] .G,,.[G,D].[G,D] | 
[V:1] (3e/f/e/ ^d/e/g/f/ & _BAG | 
[V:2] [G,D][A,D][A,^C] | 
[V:1] e/>A/d3/c/ & FF[DF] | 
[V:2] D,[A,D]_A,, | 
[V:1] (3B/c/B/ ^A/B/c/d/ & zFF | 
[V:2] G,,.[G,D].[G,D] | 
[V:1] G/z//B//c3/d/ & EEG | 
[V:2] .C,.[G,C]_B,, | 
[V:1] (3e/f/e/ ^d/e/g/f/ & [Gd][G^c][Gc] | 
[V:2] A,,.[A,E].[A,E] | 
[V:1] e/>A/d3/=c/ & [G^c]^F=F | 
[V:2] D,[A,D]_A,, | 
[V:1] B/a/_a/g/^f/=f/ & FBB | 
[V:2] G,,[G,DF][G,DF] | 
[V:1] e/>d/c2 & c/>G/E2 | 
[V:2] C,[C,2G,2] | 
[V:1] G/>B/cA & EE^D | 
[V:2] .[C,G,C].[C,G,C].[C,^F,C] | 
[V:1] Gc2 & EE2 | 
[V:2] [C,G,C].[C,,G,,C,].[C,,G,,C,] | 
[V:1] G/>B/ c/d/e/c/ & EEE | 
[V:2] .[C,,G,,C,].[C,G,C].[C,G,C] | 
[V:1] e/^f/g2 & E/A/G2 | 
[V:2] [C,G,C][C,G,E][C,G,E] | 
[V:1] g/>^f/ e/f/d/f/ & GG^F | 
[V:2] .[C,G,E].[C,G,E].[C,A,D] | 
[V:1] g>^ga/=g/ & G/A/G-[G^c] | 
[V:2] [C,G,E][_B,,D,][A,,E,] | 
[V:1] g/^f/df & zcc- | 
[V:2] [D,,D,].[D,A,D].[D,A,D] | 
[V:1] g2g/f/ & c/[c/d/][Bd]_B | 
[V:2] .G,,.[G,D].[G,D] | 
[V:1] (3e/f/e/ ^d/e/g/f/ & _BAG | 
[V:2] [G,D][A,D][A,^C] | 
[V:1] e/>A/d3/c/ & FF[DF] | 
[V:2] D,[A,D]_A,, | 
[V:1] (3B/c/B/ ^A/B/c/d/ & zFF | 
[V:2] G,,.[G,D].[G,D] | 
[V:1] G/z//B//c3/d/ & EEG | 
[V:2] .C,[G,C]_B,, | 
[V:1] (3e/f/e/ ^d/e/g/f/ & [Gd][G^c][Gc] | 
[V:2] A,,.[A,E].[A,E] | 
[V:1] e/>A/d3/=c/ & [G^c]^F=F | 
[V:2] D,[A,D]_A,, | 
[V:1] B/a/_a/g/^f/=f/ & FBB | 
[V:2] G,,[G,DF][G,DF] | 
[V:1] e/>d/c2 & c/>G/E2 ]|:  
[V:2] C,[C,2G,2] ]|:  
[V:1] [A,^Fc]cB/A/ & zFF | 
[V:2] [D,,D,]zD/C/ & z[D,A,]D, | 
[V:1] [G/B/]z//[G//B//g//].[Bdb].[cec'] | 
[V:2] B,zz & G,,.[D,G,B,].[D,G,B,] | 
[V:1] [B/d/b/][A/c/a/][^FA^f].[Bdb] | 
[V:2] D,,[D,A,C][D,A,C] | 
[V:1] [A/c/a/]>[G/B/g/]!accent![D3/G3/d3/][E/e/] | 
[V:2] G,,!accent![G,,2D,2B,2] | 
[V:1] [D/c/d/]>[A/c/d/][Dcd][Acd] | 
[V:2] [D,,D,][D,^F,C][D,F,C] | 
[V:1] [D/B/d/]>[G/B/g/].[Bdb].[cec'] | 
[V:2] .G,,.[D,G,B,].[D,G,B,] | 
[V:1] [B/d/b/]>[A/c/a/].[^FA^f].[Bdb] | 
[V:2] D,,[D,A,C].[D,A,C] | 
[V:1] z2^f/e/ & [A/c/a/][G/B/g/][GBg]G | 
[V:2] G,,[D,B,][^C,_B,] | 
[V:1] d/d/dd/d/ & [^F/c/]B/AB/A/ | 
[V:2] [=C,A,].[D,^F,C].[D,F,C] | 
[V:1] [G/d/]>[B/g/][d3/b3/][e/c'/] | 
[V:2] G,,.[D,G,B,][D,G,B,] | 
[V:1] [d/b/]>[c/a/][A3/^f3/][d/b/] | 
[V:2] D,,.[D,D].[D,D] | 
[V:1] zd3/e/ & [c/a/]>[B/g/]BB | 
[V:2] .G,,.[G,D].[G,D] | 
[V:1] d/>d/dd & c/>c/^Fc | 
[V:2] .D,,.[D,A,D].[D,A,D] | 
[V:1] [B/d/]>[B/g/][d3/b3/][e/c'/] | 
[V:2] G,,.[G,D].[G,D] | 
[V:1] [d/b/]z//[^c//^a//][=c^f=a][db] | 
[V:2] D,,.[D,D].[D,D] | 
[V:1] [c/a/][c/_a/] (3[Bg] [B^f] [B=f] | 
[V:2] [G,D][G,2D2] | 
[V:1] (3e/f/e/ ^d/e/g/f/ & _BAG | 
[V:2] [G,D][A,D][A,^C] | 
[V:1] e/>A/d3/c/ & FFF | 
[V:2] D,[A,D]_A,, | 
[V:1] (3B/c/B/ ^A/B/c/d/ & zFF | 
[V:2] G,,.[G,D].[G,D] | 
[V:1] G/z//B//c3/d/ & EEG | 
[V:2] C,[G,C]_B,, | 
[V:1] (3e/f/e/ ^d/e/g/f/ & d[G^c][Gc] | 
[V:2] A,,.[A,E].[A,E] | 
[V:1] e/>A/d3/=c/ & [G^c]^F=F | 
[V:2] D,[A,D]_A,, | 
[V:1] B/a/_a/g/^f/=f/ & FBB | 
[V:2] G,,.[G,DF].[G,DF] | 
[V:1] e/>d/c2 & c/>G/E2 :|]  
[V:2] C,,[C,2G,2] :|]  
[V:1]  [K:F] c/d/ef/g/ | 
[V:2]  [K:F] .[C,G,B,E][C,G,B,E].[C,G,B,E] | 
[V:1] a/c'<!accent!d'c'/ | 
[V:2] .[F,A,F].F,,.F,, | 
[V:1] (3=b/c'/d'/.c'g/_b/ | 
[V:2] .[F,B,E].F,,.F,, | 
[V:1] a/c'<!accent!d'c'/ | 
[V:2] .[F,A,F].F,,.F,, | 
[V:1] (3=b/c'/d'/.c'g/_b/ | 
[V:2] .[F,B,E].F,,.F,, | 
[V:1] a/b<!accent!d'c'/ | 
[V:2] .[F,A,F].F,,.F,, | 
[V:1] (3=b/c'/d'/.c'g/a/ | 
[V:2] .[F,B,E].F,,.F,, | 
[V:1] (3f/g/a/gf/d/ | 
[V:2] [F,A,F][G,=B,F].G,, | 
[V:1] c/ z// d//ef/g/ | 
[V:2] .C,,.[C,G,B,E].[C,G,B,E] | 
[V:1] a/b<!accent!d'c'/ & zcc | 
[V:2] .[F,A,F].F,,.F,, | 
[V:1] (3b/c'/d'/c'g/b/ & zcc | 
[V:2] .[F,B,E].F,,.F,, | 
[V:1] a/b<!accent!d'c'/ & zcc | 
[V:2] .[F,A,F].F,,.F,, | 
[V:1] (3=b/c'/d'/c'g/_b/ & zcc | 
[V:2] .[F,B,E].F,,.F,, | 
[V:1] a/b<!accent!d'c'/ & zcc | 
[V:2] .[F,A,F].F,,.F,, | 
[V:1] (3=b/c'/d'/c'g/a/ & zcc | 
[V:2] .[F,B,E].F,,!accent![F,B,E] | 
[V:1] f[faf']z & czz | 
[V:2] [F,A,F].[F,,C,A,]z | 
[V:1]  [K:C] G/>B/cA & EE^D | 
[V:2]  [K:C] [C,G,C][C,G,C][C,^F,C] | 
[V:1] G!accent!c2 & EE2 | 
[V:2] [C,G,C].[C,,G,,C,].[C,,G,,C,] | 
[V:1] G/>B/ c/d/e/c/ & EEE | 
[V:2] .[C,,G,,C,].[C,G,C].[C,G,C] | 
[V:1] e/^f/g2 & E/A/G2 | 
[V:2] .[C,G,C].[C,G,E].[C,G,E] | 
[V:1] g/>^f/ e/f/d/f/ & GG^F | 
[V:2] [C,G,E][C,G,E][C,A,D] | 
[V:1] g>g a/=g/ & G/A/G-[G^c] | 
[V:2] [C,G,E][_B,,D,][A,,E,] | 
[V:1] g/^f/df & zcc- | 
[V:2] [D,,D,].[D,A,D].[D,A,D] | 
[V:1] g2g/f/ & c/[B/d/][Bd]_B | 
[V:2] G,,.[G,D].[G,D] | 
[V:1] (3e/f/e/ ^d/e/g/f/ & _BAG | 
[V:2] [G,D][A,D][A,^C] | 
[V:1] e/>A/d3/c/ & FF[DF] | 
[V:2] D,[A,D]_A,, | 
[V:1] (3B/c/B/ ^A/B/c/d/ & zFF | 
[V:2] G,,.[G,D].[G,D] | 
[V:1] G/z//B//!accent!c3/d/ & EEG | 
[V:2] C,[G,C]_B,, | 
[V:1] (3e/f/e/ ^d/e/g/f/ & [Gd][G^c][Gc] | 
[V:2] A,,.[A,E][A,E] | 
[V:1] e/>A/d3/c/ & [G^c]^F=F | 
[V:2] D,[A,D]_A,, | 
[V:1] B/a/_a/g/^f/=f/ & FBB | 
[V:2] G,,[G,DF][G,DF] | 
[V:1] e/>d/c2 & c/>G/E2 | 
[V:2] C,[C,2G,2] | 
[V:1] [A,^Fc]cB/A/ & zFF | 
[V:2] z[D,A,]D/C/ & [D,,D,]zD, | 
[V:1] [G/B/]z//[G//B//g//].[Bdb].[cec'] | 
[V:2] B,zz & G,,.[D,G,B,].[D,G,B,] | 
[V:1] [B/d/b/][A/c/a/].[^FA^f].[Bdb] | 
[V:2] D,,.[D,A,C].[D,A,C] | 
[V:1] [A/c/a/][GBg]<!accent![DGd][E/e/] | 
[V:2] G,,!accent![G,,2D,2B,2] | 
[V:1] [D/c/d/]>[A/c/d/][Dcd][Acd] | 
[V:2] [D,,D,].[D,^F,C].[D,F,C] | 
[V:1] [D/B/d/]>[G/B/g/][Bdb][d/^f/d'/][c/e/c'/] | 
[V:2] G,,.[D,G,B,].[D,G,B,] | 
[V:1] [B/d/b/]>[A/c/a/][^FA^f][Bdb] | 
[V:2] D,,.[D,A,C].[D,A,C] | 
[V:1] zz^f/e/ & [A/c/a/]>[G/B/g/][GBg]G | 
[V:2] G,,[D,B,][^C,_B,] | 
[V:1] d/d/dd/d/ & [^F/c/]B/AB/A/ | 
[V:2] [D,A,].[D,^F,C].[D,F,C] | 
[V:1] [G/d/]>[B/g/][d3/b3/][e/c'/] | 
[V:2] .G,,.[D,G,B,].[D,G,B,] | 
[V:1] [d/b/]>[c/a/][A3/^f3/][d/c'/] | 
[V:2] .D,,.[D,D].[D,D] | 
[V:1] zd3/e/ & [c/a/]>[B/g/]BB | 
[V:2] G,,.[G,D].[G,D] | 
[V:1] d/>d/dd & c/>c/^Fc | 
[V:2] D,,.[D,A,D].[D,A,D] | 
[V:1] [B/d/]>[B/g/][db][^f/d'/][e/c'/] | 
[V:2] G,,.[G,D].[G,D] | 
[V:1] [d/b/]z//[^c//^a//][=c^f=a][db] | 
[V:2] .D,,.[D,D].[D,D] | 
[V:1] [c/a/][c/_a/] (3[Bg] [B^f] [B=f] | 
[V:2] [G,D][G,2D2] | 
[V:1] (3e/f/e/ ^d/e/g/f/ & _BAG | 
[V:2] [G,D][A,D][A,,^C] | 
[V:1] e/>A/d3/c/ & ^F=F[DF] | 
[V:2] [D,D][A,D]_A,, | 
[V:1] (3B/c/B/ ^A/B/c/d/ & zFF | 
[V:2] G,,[G,D][G,D] | 
[V:1] G/z//B//c3/d/ & EEG | 
[V:2] C,[G,C]_B,, | 
[V:1] (3e/f/e/ ^d/e/g/f/ & [Gd][G^c][Gc] | 
[V:2] A,,.[A,E].[A,E] | 
[V:1] e/>A/d3/=c/ & [G^c]^F=F | 
[V:2] D,[A,D]_A,, | 
[V:1] B/a/g/f/d/e/ & FzG | 
[V:2] G,,.[G,D].[B,F] | 
[V:1] [Gc][gc']z |]  
[V:2] [CE][C,,G,,E,]z |]  


